svgs/sharp-solid/align-slash.svg

<svg xmlns="http://www.w3.org/2000/svg" viewBox="0 0 640 512"><!--! Font Awesome Pro 6.6.0 by @fontawesome - https://fontawesome.com License - https://fontawesome.com/license (Commercial License) Copyright 2024 Fonticons, Inc. --><path d="M48.4 14.8L29.4 .1 0 38l19 14.7L591.5 497.2l19 14.7L639.9 474l-19-14.7L482.7 352l61.3 0 0-64-143.7 0-82.4-64L544 224l0-64-308.6 0L153 96l391 0 0-64L96 32l0 19.8-47.6-37zM324.9 352l-81.2-64L96 288l0 64 228.9 0zM162.5 224L96 171.6 96 224l66.5 0zM487.4 480l-81.2-64L96 416l0 64 391.4 0z"/></svg>

<svg xmlns="http://www.w3.org/2000/svg" viewBox="0 0 640 512"><!--! Font Awesome Pro 6.4.2 by @fontawesome - https://fontawesome.com License - https://fontawesome.com/license (Commercial License) Copyright 2023 Fonticons, Inc. --><path d="M48.4 14.8L29.4 .1 0 38 19 52.7 591.5 497.2l19 14.7L639.9 474l-19-14.7L482.7 352H544V288H400.3l-82.4-64H544V160H235.4L153 96H544V32H96V51.8l-47.6-37zM324.9 352l-81.2-64H96v64H324.9zM162.5 224L96 171.6V224h66.5zM487.4 480l-81.2-64H96v64H487.4z"/></svg>
